X: 147
T: The Queen's Welcome to Invercauld
C: J.S.Skinner
R: march
B: The Scottish Violinist
Z: 1997 by John Chambers <jc:trillian.mit.edu>
M: C|
L: 1/8
K: AMix
|: AB \
|  "A"c2e2 "D"d2f2 | "A"e2a2 "D"f2ed | "A"c2e2 A2Bc | "G"dedB G2ed \
|  "A"c2e2 "D"d2f2 | "A"e2a2 "D"f2ed | "A"ceAc "G"dBGB | "A"c2AA A2 :|
(3efg \
|| "A"a3f "G"g2e2 | "D"f2d2 "A"e2A2 | "D"fedf "A"e2A2 | "G"dcBA G2g2 \
|  "A"a3f "G"g2e2 | "D"f2d2 "A"e2AB | "A"ceAc "G"dBGB | "A"c2AA A2 ||
(3efg \
|: "A"agfa "G"gfeg | "D"fedf "A"eAaA |1 "D"fedf "A"eAaA | "G"dcBA G2g2 :|2 "A"ceAc "G"dBGB | "A"c2AA A2 |]

%%sep 1 1 500

